build/img/icon-map.svg

<svg width="25" height="25" viewBox="0 0 25 25" fill="none" xmlns="http://www.w3.org/2000/svg">
<path d="M24.1702 22.2803V6.70123C24.1821 6.44571 23.9845 6.22897 23.7291 6.2171C23.6746 6.21456 23.6201 6.22168 23.5681 6.23812V6.26127L21.4841 6.91426C21.7023 6.33016 21.8319 5.71665 21.8685 5.09423C21.8685 2.28077 19.5878 0 16.7743 0C13.9608 0 11.6801 2.28077 11.6801 5.09423C11.7126 5.68754 11.8327 6.27279 12.0367 6.8309L8.5911 5.59902C8.5511 5.5941 8.51069 5.5941 8.47069 5.59902H8.43364C8.37813 5.60001 8.32319 5.61101 8.27155 5.63144L1.12574 8.41011C0.960927 8.47281 0.846018 8.62361 0.829346 8.79913V16.246V24.3967C0.830098 24.6525 1.03804 24.8592 1.29385 24.8585C1.3504 24.8583 1.40644 24.8478 1.45918 24.8274L8.44291 22.1229L16.4084 24.9756C16.5046 25.0081 16.6087 25.0081 16.7048 24.9756L23.846 22.7434C24.0467 22.6806 24.1798 22.4904 24.1702 22.2803ZM16.7743 0.926224C19.0762 0.926224 20.9423 2.79228 20.9423 5.09423C20.9423 6.905 18.2238 11.9066 16.7743 14.3565C15.3247 11.8881 12.6063 6.88184 12.6063 5.09423C12.6063 2.79228 14.4723 0.926224 16.7743 0.926224ZM23.2579 21.9608L17.0244 23.9105V20.3769C17.0244 20.1212 16.817 19.9138 16.5613 19.9138C16.3055 19.9138 16.0981 20.1212 16.0981 20.3769V23.8781L8.90139 21.3032V18.3392C8.90139 18.0835 8.69403 17.8761 8.43828 17.8761C8.18252 17.8761 7.97516 18.0835 7.97516 18.3392V21.3032L1.75557 23.7252V16.5655L4.04334 15.6393C4.28816 15.5652 4.42651 15.3067 4.35241 15.0618C4.27831 14.817 4.01978 14.6787 3.77497 14.7528C3.74938 14.7605 3.72449 14.7705 3.70058 14.7825L1.75551 15.5652V9.11868L7.97511 6.71049V8.09983C7.97511 8.35558 8.18246 8.56294 8.43822 8.56294C8.69397 8.56294 8.90133 8.35558 8.90133 8.09983V6.69197L12.4534 7.96553C13.5925 10.5687 14.9029 13.0936 16.376 15.5235C16.5086 15.7422 16.7934 15.8119 17.0121 15.6793C17.0758 15.6407 17.1292 15.5872 17.1679 15.5235C18.6337 13.1079 19.9394 10.5985 21.0765 8.01184L23.2439 7.33106L23.2578 14.9215L20.9098 15.4911C20.6541 15.5218 20.4716 15.754 20.5023 16.0098C20.533 16.2655 20.7652 16.448 21.021 16.4173C21.0579 16.4218 21.0952 16.4218 21.1321 16.4173L23.2578 15.8986V21.9608H23.2579Z" fill="#2D383F"/>
</svg>

<svg width="25" height="25" fill="none" xmlns="http://www.w3.org/2000/svg"><path d="M24.17 22.28V6.701a.463.463 0 00-.602-.463v.023l-2.084.653a6.25 6.25 0 00.384-1.82 5.094 5.094 0 10-10.188 0c.033.594.153 1.179.357 1.737L8.59 5.599a.493.493 0 00-.12 0h-.037a.463.463 0 00-.162.032l-7.146 2.78a.463.463 0 00-.297.388v15.597a.463.463 0 00.63.431l6.984-2.704 7.965 2.853c.097.032.2.032.297 0l7.141-2.233a.463.463 0 00.324-.463zM16.774.926a4.168 4.168 0 014.168 4.168c0 1.811-2.718 6.813-4.168 9.262-1.45-2.468-4.168-7.474-4.168-9.262A4.168 4.168 0 0116.774.926zm6.484 21.035l-6.234 1.95v-3.534a.463.463 0 00-.926 0v3.501l-7.197-2.575V18.34a.463.463 0 00-.926 0v2.964l-6.22 2.422v-7.16l2.288-.926a.463.463 0 10-.342-.856l-1.945.782V9.12l6.22-2.409V8.1a.463.463 0 00.925 0V6.692l3.552 1.274a64.306 64.306 0 003.923 7.558.463.463 0 00.792 0 64.57 64.57 0 003.909-7.512l2.167-.68.014 7.59-2.348.57a.466.466 0 00.111.925.459.459 0 00.111 0l2.126-.518v6.062z" fill="#2D383F"/></svg>
